X: 102
M: 2/2
L: 1/8
K: G
|: DF"2f"AF |\
d2cB AGFE | D4 DFAF |\
d2cB AGAF | G4 |]\
"2f"G,A,B,C |\
!+!F2E2 F2G2 | AGAB c2!+!B2 |\

